packages/kaspersky-hexa-ui-icons/src/iconsSVGs/16/AlarmOff.svg

<svg width="16" height="16" viewBox="0 0 16 16" fill="none" xmlns="http://www.w3.org/2000/svg">
<path d="M7.99973 0.994385C8.35872 0.994401 8.64972 1.28543 8.6497 1.64441L8.64967 2.34177C11.0002 2.65912 12.8123 4.67337 12.8123 7.11086V10.5621L11.5123 9.2621V7.11086C11.5123 5.1709 9.93964 3.59825 7.99968 3.59825C7.37953 3.59825 6.79691 3.75896 6.2912 4.04101L5.34573 3.09553C5.93553 2.70492 6.6164 2.44077 7.34967 2.34177L7.3497 1.64436C7.34972 1.28537 7.64075 0.994369 7.99973 0.994385Z" fill="black"/>
<path fill-rule="evenodd" clip-rule="evenodd" d="M1.87109 12.1591C1.87109 11.8001 2.16211 11.5091 2.52109 11.5091H3.18707V7.11086C3.18707 6.36221 3.35801 5.65349 3.663 5.0216L2.30964 3.66825C2.0558 3.41441 2.0558 3.00285 2.30964 2.74901C2.56348 2.49517 2.97504 2.49517 3.22888 2.74901L13.7669 13.287C14.0207 13.5408 14.0207 13.9524 13.7669 14.2062C13.5131 14.4601 13.1015 14.4601 12.8477 14.2062L11.4505 12.8091H2.52109C2.16211 12.8091 1.87109 12.5181 1.87109 12.1591ZM4.66016 6.01876C4.54782 6.3625 4.48707 6.72959 4.48707 7.11086V11.5091H10.1505L4.66016 6.01876Z" fill="black"/>
<path d="M7.99969 15.0071C7.2007 15.0071 6.54588 14.3898 6.48608 13.6062H9.5133C9.4535 14.3898 8.79868 15.0071 7.99969 15.0071Z" fill="black"/>
</svg>

<svg xmlns="http://www.w3.org/2000/svg" width="16" height="16" fill="none" viewBox="0 0 16 16"><path fill="#000" fill-rule="evenodd" d="M7.9997.9944a.65.65 0 0 1 .65.65v.6974c2.3505.3173 4.1626 2.3316 4.1626 4.769v3.4513l-1.3-1.3V7.1109c0-1.94-1.5727-3.5127-3.5126-3.5127a3.497 3.497 0 0 0-1.7085.4428l-.9455-.9455a4.784 4.784 0 0 1 2.004-.7537v-.6974a.65.65 0 0 1 .65-.65M2.5211 11.509a.65.65 0 1 0 0 1.3h8.9294l1.3972 1.3971a.65.65 0 0 0 .9192-.9192L3.2289 2.749a.65.65 0 0 0-.9193.9192L3.663 5.0216a4.79 4.79 0 0 0-.476 2.0893v4.3982zm1.966-4.3982c0-.3813.0607-.7484.173-1.0921l5.4904 5.4903H4.4871zm3.5126 7.8962c-.799 0-1.4538-.6173-1.5136-1.4009h3.0272c-.0598.7836-.7146 1.4009-1.5136 1.4009"/></svg>
